public/images/reviews/dot.svg

<svg width="35" height="27" viewBox="0 0 35 27" fill="none" xmlns="http://www.w3.org/2000/svg">
<path d="M9.16914 26.7C7.63581 26.7 6.36914 26.4 5.36914 25.8C4.36914 25.2 3.53581 24.4 2.86914 23.4C2.20247 22.3333 1.70247 21.1333 1.36914 19.8C1.10247 18.4667 0.969141 17.2667 0.969141 16.2C0.969141 12.9333 1.80247 9.93333 3.46914 7.19999C5.20247 4.46666 7.83581 2.26666 11.3691 0.599996L12.2691 2.4C10.2691 3.26666 8.53581 4.6 7.06914 6.4C5.60247 8.2 4.80247 10.0333 4.66914 11.9C4.53581 12.9 4.60247 13.8333 4.86914 14.7C6.06914 13.5667 7.53581 13 9.26914 13C11.2025 13 12.8358 13.6333 14.1691 14.9C15.5025 16.1 16.1691 17.7667 16.1691 19.9C16.1691 21.9 15.4691 23.5333 14.0691 24.8C12.7358 26.0667 11.1025 26.7 9.16914 26.7ZM27.3691 26.7C25.8358 26.7 24.5691 26.4 23.5691 25.8C22.5691 25.2 21.7358 24.4 21.0691 23.4C20.4025 22.3333 19.9025 21.1333 19.5691 19.8C19.3025 18.4667 19.1691 17.2667 19.1691 16.2C19.1691 12.9333 20.0025 9.93333 21.6691 7.19999C23.4025 4.46666 26.0358 2.26666 29.5691 0.599996L30.4691 2.4C28.4691 3.26666 26.7358 4.6 25.2691 6.4C23.8025 8.2 23.0025 10.0333 22.8691 11.9C22.7358 12.9 22.8025 13.8333 23.0691 14.7C24.2691 13.5667 25.7358 13 27.4691 13C29.4025 13 31.0358 13.6333 32.3691 14.9C33.7025 16.1 34.3691 17.7667 34.3691 19.9C34.3691 21.9 33.6691 23.5333 32.2691 24.8C30.9358 26.0667 29.3025 26.7 27.3691 26.7Z" fill="white"/>
</svg>

<svg xmlns="http://www.w3.org/2000/svg" width="35" height="27" fill="none"><path fill="#fff" d="M9.17 26.7q-2.3 0-3.8-.9t-2.5-2.4q-1.002-1.6-1.5-3.6-.401-2-.4-3.6-.001-4.9 2.5-9 2.598-4.1 7.9-6.6l.9 1.8q-3 1.3-5.2 4-2.202 2.7-2.4 5.5-.202 1.5.2 2.8 1.8-1.7 4.4-1.7 2.9 0 4.9 1.9 1.999 1.8 2 5 0 3-2.1 4.9-2.001 1.9-4.9 1.9m18.2 0q-2.3 0-3.8-.9t-2.5-2.4q-1.002-1.6-1.5-3.6-.401-2-.4-3.6-.001-4.9 2.5-9 2.599-4.1 7.9-6.6l.9 1.8q-3 1.3-5.2 4t-2.4 5.5q-.201 1.5.2 2.8 1.8-1.7 4.4-1.7 2.9 0 4.9 1.9 2 1.8 2 5 0 3-2.1 4.9-2.001 1.9-4.9 1.9"/></svg>
